X: 13
T: Gravel Walks, The
Z: Sean Perry
S: https://thesession.org/tunes/42#setting50963
R: reel
M: 4/4
L: 1/8
K: Ddor
|:D2 AD F/E/D AD|D2 AD EDCE|D2 AD E/F/G AB|cAGF EDCE:|
D2 dD cDBD|D/D/D AG EDCE|D2 dD cDBd|cAGF EDCE|
D2 dD cDBD|D/D/D AG EDCE|DEFG A/B/c Bd|cAGF EDCE||
|:FD D^C D2 DE|FDFG E=CEG| FD D^C D2 AB|=cBcA GECE:|
|:F2 cF dFcF|F/F/F GF EDCE|F2 cF dFcd|cAGF EDCE
F2 cF dFcF|F/F/F GF EDCE|DEFG A/B/c Bd|cAGF EDCE:|

